images/icons/linkedin.svg

<svg width="16" height="16" viewBox="0 0 16 16" fill="none" xmlns="http://www.w3.org/2000/svg">
<g clip-path="url(#clip0_999711_99)">
<path d="M15.996 16V15.9994H16V10.1314C16 7.26071 15.382 5.04938 12.026 5.04938C10.4127 5.04938 9.33003 5.93471 8.88803 6.77404H8.84137V5.31738H5.65936V15.9994H8.9727V10.71C8.9727 9.31738 9.2367 7.97071 10.9614 7.97071C12.6607 7.97071 12.686 9.56004 12.686 10.7994V16H15.996Z" fill="#F4F4FD"/>
<path d="M0.263977 5.31799H3.58131V16H0.263977V5.31799Z" fill="#F4F4FD"/>
<path d="M1.92133 0C0.860667 0 0 0.860667 0 1.92133C0 2.982 0.860667 3.86067 1.92133 3.86067C2.982 3.86067 3.84267 2.982 3.84267 1.92133C3.842 0.860667 2.98133 0 1.92133 0V0Z" fill="#F4F4FD"/>
</g>
<defs>
<clipPath id="clip0_999711_99">
<rect width="16" height="16" fill="white"/>
</clipPath>
</defs>
</svg>

<svg xmlns="http://www.w3.org/2000/svg" width="16" height="16" fill="none" viewBox="0 0 16 16">
  <g fill="#f4f4fd" clip-path="url(#a)">
    <path d="M15.996 16H16V10.13c0-2.87-.618-5.082-3.974-5.082-1.613 0-2.696.886-3.138 1.725h-.047V5.317H5.66V16h3.314V10.71c0-1.393.264-2.74 1.988-2.74 1.7 0 1.725 1.59 1.725 2.83V16zM.264 5.318h3.317V16H.264zM1.921 0C.861 0 0 .86 0 1.921s.86 1.94 1.921 1.94 1.922-.879 1.922-1.94C3.842.861 2.98 0 1.92 0"/>
  </g>
  <defs>
    <clipPath id="a">
      <path fill="#fff" d="M0 0h16v16H0z"/>
    </clipPath>
  </defs>
</svg>
